; generated by Slic3r 1.36.2-prusa3d-win64 on 2018-02-11 at 12:12:05

; 

; external perimeters extrusion width = 0.45mm
; perimeters extrusion width = 0.45mm
; infill extrusion width = 0.45mm
; solid infill extrusion width = 0.45mm
; top infill extrusion width = 0.40mm
; first layer extrusion width = 0.20mm

; external perimeters extrusion width = 0.45mm
; perimeters extrusion width = 0.45mm
; infill extrusion width = 0.45mm
; solid infill extrusion width = 0.45mm
; top infill extrusion width = 0.40mm
; first layer extrusion width = 0.20mm

; external perimeters extrusion width = 0.45mm
; perimeters extrusion width = 0.45mm
; infill extrusion width = 0.45mm
; solid infill extrusion width = 0.45mm
; top infill extrusion width = 0.40mm
; first layer extrusion width = 0.20mm

M107
M190 S65 ; set bed temperature and wait for it to be reached
M104 S205 ; set temperature
G28 ; home all axes
G1 Z5 F5000 ; lift nozzle

; Filament gcode

M109 S205 ; set temperature and wait for it to be reached
G21 ; set units to millimeters
G90 ; use absolute coordinates
M83 ; use relative distances for extrusion
T0
G1 Z0.200 F7800.000
G10 ; retract
G1 X97.000 Y179.750 F7800.000
G11 ; unretract
;-------------------------------------
; CP WIPE TOWER FIRST LAYER BRIM START
G1 Y160.000 E0.8591 F2400
G1 X99.750 F7000
G1 Y180.250 E0.6460 F2100
G1 X120.250 E0.6539
G1 Y160.000 E0.6460
G1 X99.750 E0.6539
G1 X99.250 Y159.500 F7000
G1 Y180.750 E0.6779 F2100
G1 X120.750 E0.6859
G1 Y159.500 E0.6779
G1 X99.250 E0.6859
G1 X98.750 Y159.000 F7000
G1 Y181.250 E0.7098 F2100
G1 X121.250 E0.7178
G1 Y159.000 E0.7098
G1 X98.750 E0.7178
G1 X98.250 Y158.500 F7000
G1 Y181.750 E0.7417 F2100
G1 X121.750 E0.7497
G1 Y158.500 E0.7417
G1 X98.250 E0.7497
G1 X100.000 Y160.000 F7000
; CP WIPE TOWER FIRST LAYER BRIM END
;-----------------------------------
G10 ; retract
G1 X98.456 Y128.982 F7800.000
G11 ; unretract
G1 F3600
G1 X97.164 Y129.155 E0.01536
G1 X76.792 Y129.154 E0.24013
G1 X75.740 Y129.027 E0.01248
G1 X74.726 Y128.722 E0.01248
G1 X73.779 Y128.247 E0.01248
G1 X72.927 Y127.617 E0.01248
G1 X72.057 Y126.671 E0.01515
G1 X71.400 Y125.560 E0.01522
G1 X70.991 Y124.342 E0.01515
G1 X70.843 Y123.059 E0.01522
G1 X70.846 Y76.810 E0.54513
G1 X70.969 Y75.758 E0.01248
G1 X71.274 Y74.737 E0.01256
G1 X71.750 Y73.784 E0.01256
G1 X72.383 Y72.927 E0.01256
G1 X73.294 Y72.083 E0.01464
G1 X74.351 Y71.442 E0.01457
G1 X75.515 Y71.025 E0.01457
G1 X76.745 Y70.848 E0.01464
G1 X123.006 Y70.843 E0.54527
G1 X124.092 Y70.940 E0.01284
G1 X125.143 Y71.228 E0.01284
G1 X126.127 Y71.696 E0.01284
G1 X127.013 Y72.330 E0.01284
G1 X127.773 Y73.111 E0.01284
G1 X128.384 Y74.013 E0.01284
G1 X128.828 Y75.015 E0.01292
G1 X129.087 Y76.074 E0.01284
G1 X129.157 Y76.984 E0.01076
G1 X129.146 Y97.361 E0.24019
G1 X129.003 Y98.368 E0.01198
G1 X128.694 Y99.343 E0.01205
G1 X128.228 Y100.253 E0.01205
G1 X127.617 Y101.073 E0.01205
G1 X101.319 Y127.388 E0.43851
G1 X100.548 Y128.032 E0.01184
G1 X99.688 Y128.539 E0.01176
G1 X98.513 Y128.962 E0.01473
G10 ; retract
G1 X96.743 Y122.743 F7800.000
G11 ; unretract
G1 F3600
G1 X77.257 Y122.743 E0.22968
G1 X77.257 Y103.257 E0.22968
G1 X96.743 Y103.257 E0.22968
G1 X96.743 Y122.683 E0.22897
G1 X96.743 Y122.900 F7800.000
G1 F3600
G1 X77.100 Y122.900 E0.23153
G1 X77.100 Y103.100 E0.23338
G1 X96.900 Y103.100 E0.23338
G1 X96.900 Y122.900 E0.23338
G1 X96.803 Y122.900 E0.00114
G1 X96.397 Y122.699 F7800.000
G10 ; retract
G1 X77.623 Y122.696 F7800.000
G11 ; unretract
G1 F4800
G1 X77.375 Y122.448 E0.00416
G1 X77.375 Y122.225 E0.00264
G1 X77.775 Y122.625 E0.00671
G1 X77.999 Y122.625 E0.00264
G1 X77.375 Y122.001 E0.01044
G1 X77.375 Y121.778 E0.00264
G1 X78.222 Y122.625 E0.01418
G1 X78.445 Y122.625 E0.00264
G1 X77.375 Y121.555 E0.01792
G1 X77.375 Y121.332 E0.00264
G1 X78.668 Y122.625 E0.02165
G1 X78.891 Y122.625 E0.00264
G1 X77.375 Y121.109 E0.02539
G1 X77.375 Y120.886 E0.00264
G1 X79.114 Y122.625 E0.02912
G1 X79.337 Y122.625 E0.00264
G1 X77.375 Y120.663 E0.03286
G1 X77.375 Y120.440 E0.00264
G1 X79.560 Y122.625 E0.03659
G1 X79.783 Y122.625 E0.00264
G1 X77.375 Y120.217 E0.04033
G1 X77.375 Y119.994 E0.00264
G1 X80.006 Y122.625 E0.04407
G1 X80.229 Y122.625 E0.00264
G1 X77.375 Y119.771 E0.04780
G1 X77.375 Y119.548 E0.00264
G1 X80.452 Y122.625 E0.05154
G1 X80.675 Y122.625 E0.00264
G1 X77.375 Y119.325 E0.05527
G1 X77.375 Y119.101 E0.00264
G1 X80.899 Y122.625 E0.05901
G1 X81.122 Y122.625 E0.00264
G1 X77.375 Y118.878 E0.06274
G1 X77.375 Y118.655 E0.00264
G1 X81.345 Y122.625 E0.06648
G1 X81.568 Y122.625 E0.00264
G1 X77.375 Y118.432 E0.07021
G1 X77.375 Y118.209 E0.00264
G1 X81.791 Y122.625 E0.07395
G1 X82.014 Y122.625 E0.00264
G1 X77.375 Y117.986 E0.07769
G1 X77.375 Y117.763 E0.00264
G1 X82.237 Y122.625 E0.08142
G1 X82.460 Y122.625 E0.00264
G1 X77.375 Y117.540 E0.08516
G1 X77.375 Y117.317 E0.00264
G1 X82.683 Y122.625 E0.08889
G1 X82.906 Y122.625 E0.00264
G1 X77.375 Y117.094 E0.09263
G1 X77.375 Y116.871 E0.00264
G1 X83.129 Y122.625 E0.09636
G1 X83.352 Y122.625 E0.00264
G1 X77.375 Y116.648 E0.10010
G1 X77.375 Y116.425 E0.00264
G1 X83.575 Y122.625 E0.10383
G1 X83.798 Y122.625 E0.00264
G1 X77.375 Y116.202 E0.10757
G1 X77.375 Y115.978 E0.00264
G1 X84.022 Y122.625 E0.11131
G1 X84.245 Y122.625 E0.00264
G1 X77.375 Y115.755 E0.11504
G1 X77.375 Y115.532 E0.00264
G1 X84.468 Y122.625 E0.11878
G1 X84.691 Y122.625 E0.00264
G1 X77.375 Y115.309 E0.12251
G1 X77.375 Y115.086 E0.00264
G1 X84.914 Y122.625 E0.12625
G1 X85.137 Y122.625 E0.00264
G1 X77.375 Y114.863 E0.12998
G1 X77.375 Y114.640 E0.00264
G1 X85.360 Y122.625 E0.13372
G1 X85.583 Y122.625 E0.00264
G1 X77.375 Y114.417 E0.13746
G1 X77.375 Y114.194 E0.00264
G1 X85.806 Y122.625 E0.14119
G1 X86.029 Y122.625 E0.00264
G1 X77.375 Y113.971 E0.14493
G1 X77.375 Y113.748 E0.00264
G1 X86.252 Y122.625 E0.14866
G1 X86.475 Y122.625 E0.00264
G1 X77.375 Y113.525 E0.15240
G1 X77.375 Y113.302 E0.00264
G1 X86.698 Y122.625 E0.15613
G1 X86.921 Y122.625 E0.00264
G1 X77.375 Y113.079 E0.15987
G1 X77.375 Y112.855 E0.00264
G1 X87.145 Y122.625 E0.16360
G1 X87.368 Y122.625 E0.00264
G1 X77.375 Y112.632 E0.16734
G1 X77.375 Y112.409 E0.00264
G1 X87.591 Y122.625 E0.17108
G1 X87.814 Y122.625 E0.00264
G1 X77.375 Y112.186 E0.17481
G1 X77.375 Y111.963 E0.00264
G1 X88.037 Y122.625 E0.17855
G1 X88.260 Y122.625 E0.00264
G1 X77.375 Y111.740 E0.18228
G1 X77.375 Y111.517 E0.00264
G1 X88.483 Y122.625 E0.18602
G1 X88.706 Y122.625 E0.00264
G1 X77.375 Y111.294 E0.18975
G1 X77.375 Y111.071 E0.00264
G1 X88.929 Y122.625 E0.19349
G1 X89.152 Y122.625 E0.00264
G1 X77.375 Y110.848 E0.19723
G1 X77.375 Y110.625 E0.00264
G1 X89.375 Y122.625 E0.20096
G1 X89.598 Y122.625 E0.00264
G1 X77.375 Y110.402 E0.20470
G1 X77.375 Y110.179 E0.00264
G1 X89.821 Y122.625 E0.20843
G1 X90.044 Y122.625 E0.00264
G1 X77.375 Y109.956 E0.21217
G1 X77.375 Y109.732 E0.00264
G1 X90.268 Y122.625 E0.21590
G1 X90.491 Y122.625 E0.00264
G1 X77.375 Y109.509 E0.21964
G1 X77.375 Y109.286 E0.00264
G1 X90.714 Y122.625 E0.22337
G1 X90.937 Y122.625 E0.00264
G1 X77.375 Y109.063 E0.22711
G1 X77.375 Y108.840 E0.00264
G1 X91.160 Y122.625 E0.23085
G1 X91.383 Y122.625 E0.00264
G1 X77.375 Y108.617 E0.23458
G1 X77.375 Y108.394 E0.00264
G1 X91.606 Y122.625 E0.23832
G1 X91.829 Y122.625 E0.00264
G1 X77.375 Y108.171 E0.24205
G1 X77.375 Y107.948 E0.00264
G1 X92.052 Y122.625 E0.24579
G1 X92.275 Y122.625 E0.00264
G1 X77.375 Y107.725 E0.24952
G1 X77.375 Y107.502 E0.00264
G1 X92.498 Y122.625 E0.25326
G1 X92.721 Y122.625 E0.00264
G1 X77.375 Y107.279 E0.25700
G1 X77.375 Y107.056 E0.00264
G1 X92.944 Y122.625 E0.26073
G1 X93.167 Y122.625 E0.00264
G1 X77.375 Y106.833 E0.26447
G1 X77.375 Y106.609 E0.00264
G1 X93.391 Y122.625 E0.26820
G1 X93.614 Y122.625 E0.00264
G1 X77.375 Y106.386 E0.27194
G1 X77.375 Y106.163 E0.00264
G1 X93.837 Y122.625 E0.27567
G1 X94.060 Y122.625 E0.00264
G1 X77.375 Y105.940 E0.27941
G1 X77.375 Y105.717 E0.00264
G1 X94.283 Y122.625 E0.28314
G1 X94.506 Y122.625 E0.00264
G1 X77.375 Y105.494 E0.28688
G1 X77.375 Y105.271 E0.00264
G1 X94.729 Y122.625 E0.29062
G1 X94.952 Y122.625 E0.00264
G1 X77.375 Y105.048 E0.29435
G1 X77.375 Y104.825 E0.00264
G1 X95.175 Y122.625 E0.29809
G1 X95.398 Y122.625 E0.00264
G1 X77.375 Y104.602 E0.30182
G1 X77.375 Y104.379 E0.00264
G1 X95.621 Y122.625 E0.30556
G1 X95.844 Y122.625 E0.00264
G1 X77.375 Y104.156 E0.30929
G1 X77.375 Y103.933 E0.00264
G1 X96.067 Y122.625 E0.31303
G1 X96.290 Y122.625 E0.00264
G1 X77.375 Y103.710 E0.31677
G1 X77.375 Y103.486 E0.00264
G1 X96.514 Y122.625 E0.32050
G1 X96.625 Y122.625 E0.00132
G1 X96.625 Y122.514 E0.00132
G1 X77.486 Y103.375 E0.32050
G1 X77.709 Y103.375 E0.00264
G1 X96.625 Y122.291 E0.31677
G1 X96.625 Y122.067 E0.00264
G1 X77.933 Y103.375 E0.31303
G1 X78.156 Y103.375 E0.00264
G1 X96.625 Y121.844 E0.30929
G1 X96.625 Y121.621 E0.00264
G1 X78.379 Y103.375 E0.30556
G1 X78.602 Y103.375 E0.00264
G1 X96.625 Y121.398 E0.30182
G1 X96.625 Y121.175 E0.00264
G1 X78.825 Y103.375 E0.29809
G1 X79.048 Y103.375 E0.00264
G1 X96.625 Y120.952 E0.29435
G1 X96.625 Y120.729 E0.00264
G1 X79.271 Y103.375 E0.29062
G1 X79.494 Y103.375 E0.00264
G1 X96.625 Y120.506 E0.28688
G1 X96.625 Y120.283 E0.00264
G1 X79.717 Y103.375 E0.28315
G1 X79.940 Y103.375 E0.00264
G1 X96.625 Y120.060 E0.27941
G1 X96.625 Y119.837 E0.00264
G1 X80.163 Y103.375 E0.27567
G1 X80.386 Y103.375 E0.00264
G1 X96.625 Y119.614 E0.27194
G1 X96.625 Y119.391 E0.00264
G1 X80.609 Y103.375 E0.26820
G1 X80.832 Y103.375 E0.00264
G1 X96.625 Y119.168 E0.26447
G1 X96.625 Y118.944 E0.00264
G1 X81.056 Y103.375 E0.26073
G1 X81.279 Y103.375 E0.00264
G1 X96.625 Y118.721 E0.25700
G1 X96.625 Y118.498 E0.00264
G1 X81.502 Y103.375 E0.25326
G1 X81.725 Y103.375 E0.00264
G1 X96.625 Y118.275 E0.24952
G1 X96.625 Y118.052 E0.00264
G1 X81.948 Y103.375 E0.24579
G1 X82.171 Y103.375 E0.00264
G1 X96.625 Y117.829 E0.24205
G1 X96.625 Y117.606 E0.00264
G1 X82.394 Y103.375 E0.23832
G1 X82.617 Y103.375 E0.00264
G1 X96.625 Y117.383 E0.23458
G1 X96.625 Y117.160 E0.00264
G1 X82.840 Y103.375 E0.23085
G1 X83.063 Y103.375 E0.00264
G1 X96.625 Y116.937 E0.22711
G1 X96.625 Y116.714 E0.00264
G1 X83.286 Y103.375 E0.22338
G1 X83.509 Y103.375 E0.00264
G1 X96.625 Y116.491 E0.21964
G1 X96.625 Y116.268 E0.00264
G1 X83.732 Y103.375 E0.21590
G1 X83.955 Y103.375 E0.00264
G1 X96.625 Y116.045 E0.21217
G1 X96.625 Y115.821 E0.00264
G1 X84.179 Y103.375 E0.20843
G1 X84.402 Y103.375 E0.00264
G1 X96.625 Y115.598 E0.20470
G1 X96.625 Y115.375 E0.00264
G1 X84.625 Y103.375 E0.20096
G1 X84.848 Y103.375 E0.00264
G1 X96.625 Y115.152 E0.19723
G1 X96.625 Y114.929 E0.00264
G1 X85.071 Y103.375 E0.19349
G1 X85.294 Y103.375 E0.00264
G1 X96.625 Y114.706 E0.18975
G1 X96.625 Y114.483 E0.00264
G1 X85.517 Y103.375 E0.18602
G1 X85.740 Y103.375 E0.00264
G1 X96.625 Y114.260 E0.18228
G1 X96.625 Y114.037 E0.00264
G1 X85.963 Y103.375 E0.17855
G1 X86.186 Y103.375 E0.00264
G1 X96.625 Y113.814 E0.17481
G1 X96.625 Y113.591 E0.00264
G1 X86.409 Y103.375 E0.17108
G1 X86.632 Y103.375 E0.00264
G1 X96.625 Y113.368 E0.16734
G1 X96.625 Y113.145 E0.00264
G1 X86.855 Y103.375 E0.16361
G1 X87.078 Y103.375 E0.00264
G1 X96.625 Y112.922 E0.15987
G1 X96.625 Y112.698 E0.00264
G1 X87.302 Y103.375 E0.15613
G1 X87.525 Y103.375 E0.00264
G1 X96.625 Y112.475 E0.15240
G1 X96.625 Y112.252 E0.00264
G1 X87.748 Y103.375 E0.14866
G1 X87.971 Y103.375 E0.00264
G1 X96.625 Y112.029 E0.14493
G1 X96.625 Y111.806 E0.00264
G1 X88.194 Y103.375 E0.14119
G1 X88.417 Y103.375 E0.00264
G1 X96.625 Y111.583 E0.13746
G1 X96.625 Y111.360 E0.00264
G1 X88.640 Y103.375 E0.13372
G1 X88.863 Y103.375 E0.00264
G1 X96.625 Y111.137 E0.12999
G1 X96.625 Y110.914 E0.00264
G1 X89.086 Y103.375 E0.12625
G1 X89.309 Y103.375 E0.00264
G1 X96.625 Y110.691 E0.12251
G1 X96.625 Y110.468 E0.00264
G1 X89.532 Y103.375 E0.11878
G1 X89.755 Y103.375 E0.00264
G1 X96.625 Y110.245 E0.11504
G1 X96.625 Y110.022 E0.00264
G1 X89.978 Y103.375 E0.11131
G1 X90.202 Y103.375 E0.00264
G1 X96.625 Y109.798 E0.10757
G1 X96.625 Y109.575 E0.00264
G1 X90.425 Y103.375 E0.10384
G1 X90.648 Y103.375 E0.00264
G1 X96.625 Y109.352 E0.10010
G1 X96.625 Y109.129 E0.00264
G1 X90.871 Y103.375 E0.09636
G1 X91.094 Y103.375 E0.00264
G1 X96.625 Y108.906 E0.09263
G1 X96.625 Y108.683 E0.00264
G1 X91.317 Y103.375 E0.08889
G1 X91.540 Y103.375 E0.00264
G1 X96.625 Y108.460 E0.08516
G1 X96.625 Y108.237 E0.00264
G1 X91.763 Y103.375 E0.08142
G1 X91.986 Y103.375 E0.00264
G1 X96.625 Y108.014 E0.07769
G1 X96.625 Y107.791 E0.00264
G1 X92.209 Y103.375 E0.07395
G1 X92.432 Y103.375 E0.00264
G1 X96.625 Y107.568 E0.07022
G1 X96.625 Y107.345 E0.00264
G1 X92.655 Y103.375 E0.06648
G1 X92.878 Y103.375 E0.00264
G1 X96.625 Y107.122 E0.06274
G1 X96.625 Y106.899 E0.00264
G1 X93.101 Y103.375 E0.05901
G1 X93.325 Y103.375 E0.00264
G1 X96.625 Y106.675 E0.05527
G1 X96.625 Y106.452 E0.00264
G1 X93.548 Y103.375 E0.05154
G1 X93.771 Y103.375 E0.00264
G1 X96.625 Y106.229 E0.04780
G1 X96.625 Y106.006 E0.00264
G1 X93.994 Y103.375 E0.04407
G1 X94.217 Y103.375 E0.00264
G1 X96.625 Y105.783 E0.04033
G1 X96.625 Y105.560 E0.00264
G1 X94.440 Y103.375 E0.03659
G1 X94.663 Y103.375 E0.00264
G1 X96.625 Y105.337 E0.03286
G1 X96.625 Y105.114 E0.00264
G1 X94.886 Y103.375 E0.02912
G1 X95.109 Y103.375 E0.00264
G1 X96.625 Y104.891 E0.02539
G1 X96.625 Y104.668 E0.00264
G1 X95.332 Y103.375 E0.02165
; Percent = 1
G1 X95.555 Y103.375 E0.00264
G1 X96.625 Y104.445 E0.01792
G1 X96.625 Y104.222 E0.00264
G1 X95.778 Y103.375 E0.01418
G1 X96.001 Y103.375 E0.00264
G1 X96.625 Y103.999 E0.01045
G1 X96.625 Y103.776 E0.00264
G1 X96.224 Y103.375 E0.00671
G1 X96.448 Y103.375 E0.00264
G1 X96.696 Y103.623 E0.00416
G10 ; retract
G1 X100.500 Y160.750 F7800.000
G11 ; unretract
;--------------------
; CP TOOLCHANGE START
; toolchange #0
; material : DEFAULT (PLA)
;--------------------
M220 S100
M907 E750
; CP TOOLCHANGE UNLOAD
G1 X101.250 Y160.850 F4000
G1 X119.250 E0.9048
G1 Y161.450 E0.0145 F4600
G1 X100.750 E0.9331
G1 X101.250 Y162.050 E0.0145 F5200
G1 X118.750 E0.9840
G1 E-15.0000 F5000
G1 E-50.0000 F5400
G1 E-15.0000 F3000
G1 E-12.0000 F2000
M104 S205
G1 X119.750 Y162.450 F7200
G1 X100.250 E3.0000 F1600
G1 X119.750 E-5.0000
G1 X100.250 E5.0000 F2000
G1 X119.750 E-5.0000
G1 X100.250 E5.0000 F2400
G1 X119.750 E-5.0000
G1 X100.250 E5.0000
G1 X119.750 E-3.0000
G4 S0
T1
M220 S100
G4 S0
; CP TOOLCHANGE LOAD
G1 X119.500 E20.0000 F1400
G1 X100.500 E40.0000 F3000
G1 X119.500 E20.0000 F1600
G1 X100.500 E10.0000 F1000
G1 X119.500 E0.5510 F1600
G1 Y162.875 F7200
G1 X100.500 E0.5510 F2200
G1 Y163.300 F7200
G1 X119.500 E0.5510 F2200
G1 Y163.725 F7200
G1 X100.500 E0.5510 F2200
G1 Y164.150 F7200
G1 X119.500 E0.5510 F2200
M907 E550
; CP TOOLCHANGE WIPE
G1 X100.750 Y164.550 E0.6418 F2125
G1 X119.500 E0.6416
G1 Y164.950 E0.0137 F2150
G1 X100.500 E0.6502
G1 Y165.350 E0.0137 F2175
G1 X120.000 E0.6673
G1 X119.500 Y165.750 E0.0219 F2200
G1 X100.500 E0.6502
G1 X100.750 Y166.150 E0.0161 F2225
G1 X119.500 E0.6416
G1 Y166.550 E0.0137 F2250
G1 X100.500 E0.6502
G1 Y166.950 E0.0137 F2275
G1 X120.000 E0.6673
G1 X119.500 Y167.350 E0.0219 F2300
G1 X100.500 E0.6502
G1 X100.750 Y167.750 E0.0161 F2325
G1 X119.500 E0.6416
G1 Y168.150 E0.0137 F2350
G1 X100.500 E0.6502
G1 Y168.550 E0.0137 F2375
G1 X120.000 E0.6673
G1 X119.500 Y168.950 E0.0219 F2400
G1 X100.500 E0.6502
G1 X100.750 Y169.350 E0.0161
G1 X119.500 E0.6416
G1 Y169.750 E0.0137
G1 X100.500 E0.6502
G1 X100.000 Y169.750 F7000
G1 Y160.250 E0.2755 F3200
G1 X120.000 E0.5800
G1 Y169.750 E0.2755
G1 X100.000 E0.5800
M907 E550
G1 F6000
G4 S0
G92 E0
; CP TOOLCHANGE END
;------------------


G10 ; retract
G1 X103.257 Y96.743 F7800.000
G11 ; unretract
G1 F3600
G1 X103.257 Y77.257 E0.22968
G1 X122.743 Y77.257 E0.22968
G1 X122.743 Y96.743 E0.22968
G1 X103.317 Y96.743 E0.22897
G1 X103.257 Y96.900 F7800.000
G1 F3600
G1 X103.100 Y96.900 E0.00185
G1 X103.100 Y77.100 E0.23338
G1 X122.900 Y77.100 E0.23338
G1 X122.900 Y96.900 E0.23338
G1 X103.317 Y96.900 E0.23082
G1 X103.146 Y96.789 F7800.000
G1 X103.623 Y96.696 F7800.000
G1 F4800
G1 X103.375 Y96.448 E0.00416
G1 X103.375 Y96.225 E0.00264
G1 X103.775 Y96.625 E0.00671
G1 X103.999 Y96.625 E0.00264
G1 X103.375 Y96.001 E0.01044
G1 X103.375 Y95.778 E0.00264
